symbols/web/tablet_mac/materialsymbolsoutlined/tablet_mac_wght200_20px.svg

<svg xmlns="http://www.w3.org/2000/svg" height="20" width="20"><path d="M4.771 18.333q-.604 0-1.021-.416-.417-.417-.417-1.021V3.104q0-.604.417-1.021.417-.416 1.021-.416h10.458q.604 0 1.021.416.417.417.417 1.021v13.792q0 .604-.417 1.021-.417.416-1.021.416ZM4.25 13.5h11.5V4.792H4.25Zm0 .917v2.479q0 .229.146.375t.375.146h10.458q.229 0 .375-.146t.146-.375v-2.479Zm0-10.542h11.5v-.771q0-.229-.146-.375t-.375-.146H4.771q-.229 0-.375.146t-.146.375Zm0-1.292v1.292V2.583Zm0 14.834v-3 3Zm5.771-.813q.25 0 .469-.219.218-.218.218-.468 0-.271-.218-.479-.219-.209-.469-.209-.25 0-.469.209-.219.208-.219.479 0 .25.219.468.219.219.469.219Z"/></svg>

<svg xmlns="http://www.w3.org/2000/svg" height="20" width="20"><path d="M4.771 18.333Q4.167 18.333 3.75 17.917Q3.333 17.5 3.333 16.896V3.104Q3.333 2.5 3.75 2.083Q4.167 1.667 4.771 1.667H15.229Q15.833 1.667 16.25 2.083Q16.667 2.5 16.667 3.104V16.896Q16.667 17.5 16.25 17.917Q15.833 18.333 15.229 18.333ZM4.25 13.5H15.75V4.792H4.25ZM4.25 14.417V16.896Q4.25 17.125 4.396 17.271Q4.542 17.417 4.771 17.417H15.229Q15.458 17.417 15.604 17.271Q15.75 17.125 15.75 16.896V14.417ZM4.25 3.875H15.75V3.104Q15.75 2.875 15.604 2.729Q15.458 2.583 15.229 2.583H4.771Q4.542 2.583 4.396 2.729Q4.25 2.875 4.25 3.104ZM4.25 2.583Q4.25 2.583 4.25 2.729Q4.25 2.875 4.25 3.104V3.875V3.104Q4.25 2.875 4.25 2.729Q4.25 2.583 4.25 2.583ZM4.25 17.417Q4.25 17.417 4.25 17.271Q4.25 17.125 4.25 16.896V14.417V16.896Q4.25 17.125 4.25 17.271Q4.25 17.417 4.25 17.417ZM10.021 16.604Q10.271 16.604 10.49 16.385Q10.708 16.167 10.708 15.917Q10.708 15.646 10.49 15.438Q10.271 15.229 10.021 15.229Q9.771 15.229 9.552 15.438Q9.333 15.646 9.333 15.917Q9.333 16.167 9.552 16.385Q9.771 16.604 10.021 16.604Z"/></svg>
